X: 18
T: Jackson's Turret
S: "Jackson's Celebrated Irish Tunes"
N: 102228
Z: BB
L: 1/16
M: 2/4
R: hornpipe
Q: 1/8=160
K: D
A2 |dAFA dAFA |d2f4 ed |ecAc ecAc |e2g4 fe |
fdAd f2ed |ecAc e2dc | dfdB cecA | E2^G2 A2 :|
A2 |dAFA d2=c2 |BGAF G2B2 |eB^GB e2d2 |cAB^G A2fg |
afdf a2gf |gece g2fe |fafd egec |d2D2 D2 :|
%%%%%
